X:1
T:[ID 2-65a]
T:[ID 2-65a]
T:Bezeichnung standardisiert: Tantz Tantz
T:Urheber unbekannt Datum in der hier transkribierten schriftlichen Quelle: 1767
C:Urheber unbekannt
C:Datum in der hier transkribierten schriftlichen Quelle: 1767
L:1/8
M:2/4
K:G
V:1 treble 
V:1
 dd/B/ GG | G2 z e | dB cB | BA z b | a2 g2 | f/g/ a2 b | a2 g2 | f/g/ a2 g | fe/d/ e/g/e/c/ | %9
 d2 D2 :: aa/f/ dd | d2 z d' | d'c' c'b | ad z e | d2 c2 | B/g/f/e/ de | d2 c2 | B/g/f/e/ dc | %18
 BA/G/ A/c/A/F/ | G2 G,2 :| %20

